X:483
T: ICH GING IM MONDENSCHIMMER
N: F0918
O: Europa, Mitteleuropa, Deutschland
R: Liebes - Lied
M: 2/4
L: 1/16
K: Eb
B2 | B2GGBAGF | FEE2
G4 | c2F2F2GA | A2G2z2
B2 | B2=A2e3e | dAA2
G4 | c2AFE2DF | F2E2z2

@@@ Tune index: 5914
